src/assets/svg-sprite/insta-mobile.svg

<svg width="32" height="32" viewBox="0 0 32 32" fill="none" xmlns="http://www.w3.org/2000/svg">
<path fill-rule="evenodd" clip-rule="evenodd" d="M16 32C24.8366 32 32 24.8366 32 16C32 7.16344 24.8366 0 16 0C7.16344 0 0 7.16344 0 16C0 24.8366 7.16344 32 16 32ZM16.0026 9.125C14.2107 9.125 13.9818 9.13275 13.2723 9.16391C12.5447 9.19598 12.0325 9.3146 11.5838 9.48881C11.1041 9.67024 10.6735 9.94953 10.3151 10.3157C9.95245 10.6733 9.6705 11.1061 9.49135 11.5812C9.31729 12.0317 9.19868 12.5409 9.16655 13.2684C9.13274 13.9806 9.125 14.2102 9.125 16.0013C9.125 17.7929 9.13275 18.0218 9.16392 18.7311C9.196 19.4585 9.31463 19.9707 9.48899 20.4194C9.6708 20.8998 9.95292 21.3299 10.3155 21.6873C10.6732 22.0501 11.1062 22.3323 11.5817 22.5114C12.0324 22.6854 12.5418 22.804 13.2698 22.8361C13.9791 22.8674 14.2082 22.875 16 22.875C17.7919 22.875 18.0209 22.8674 18.7303 22.8361C19.4584 22.804 19.9709 22.6853 20.4198 22.5108C21.3802 22.1395 22.1395 21.3802 22.5108 20.42C22.6851 19.9691 22.804 19.4595 22.8361 18.7311C22.8672 18.0217 22.875 17.7929 22.875 16.0013C22.875 14.2115 22.8724 13.9817 22.8412 13.2715C22.8091 12.5441 22.6906 12.032 22.5162 11.5833C22.3348 11.1038 22.0555 10.6732 21.6892 10.3149C21.3316 9.95234 20.8988 9.67032 20.4235 9.49128C19.9729 9.31724 19.4636 9.19866 18.736 9.16655C18.0237 9.13274 17.794 9.125 16.0026 9.125ZM21.6892 10.3149L21.6912 10.3168L21.4898 10.5151L21.6873 10.313L21.6892 10.3149ZM10.3155 21.6873L10.314 21.6858L10.5153 21.4875L10.3171 21.6889L10.3155 21.6873ZM10.3151 10.3157L10.3171 10.3138L10.5153 10.5151L10.3132 10.3176L10.3151 10.3157ZM12.7432 15.9997C12.7432 14.2018 14.2019 12.7432 15.9997 12.7432C17.7977 12.7432 19.2563 14.2018 19.2563 15.9997C19.2563 17.7977 17.7977 19.2563 15.9997 19.2563C14.2019 19.2563 12.7432 17.7977 12.7432 15.9997ZM18.5293 12.0177C18.5293 11.2182 19.1774 10.5703 19.9766 10.5703C20.7759 10.5703 21.424 11.2182 21.424 12.0177C21.424 12.817 20.776 13.465 19.9766 13.465C19.1773 13.465 18.5293 12.817 18.5293 12.0177Z" fill="#333333"/>
<path fill-rule="evenodd" clip-rule="evenodd" d="M16 32C24.8366 32 32 24.8366 32 16C32 7.16344 24.8366 0 16 0C7.16344 0 0 7.16344 0 16C0 24.8366 7.16344 32 16 32ZM16.0026 9.125C14.2107 9.125 13.9818 9.13275 13.2723 9.16391C12.5447 9.19598 12.0325 9.3146 11.5838 9.48881C11.1041 9.67024 10.6735 9.94953 10.3151 10.3157C9.95245 10.6733 9.6705 11.1061 9.49135 11.5812C9.31729 12.0317 9.19868 12.5409 9.16655 13.2684C9.13274 13.9806 9.125 14.2102 9.125 16.0013C9.125 17.7929 9.13275 18.0218 9.16392 18.7311C9.196 19.4585 9.31463 19.9707 9.48899 20.4194C9.6708 20.8998 9.95292 21.3299 10.3155 21.6873C10.6732 22.0501 11.1062 22.3323 11.5817 22.5114C12.0324 22.6854 12.5418 22.804 13.2698 22.8361C13.9791 22.8674 14.2082 22.875 16 22.875C17.7919 22.875 18.0209 22.8674 18.7303 22.8361C19.4584 22.804 19.9709 22.6853 20.4198 22.5108C21.3802 22.1395 22.1395 21.3802 22.5108 20.42C22.6851 19.9691 22.804 19.4595 22.8361 18.7311C22.8672 18.0217 22.875 17.7929 22.875 16.0013C22.875 14.2115 22.8724 13.9817 22.8412 13.2715C22.8091 12.5441 22.6906 12.032 22.5162 11.5833C22.3348 11.1038 22.0555 10.6732 21.6892 10.3149C21.3316 9.95234 20.8988 9.67032 20.4235 9.49128C19.9729 9.31724 19.4636 9.19866 18.736 9.16655C18.0237 9.13274 17.794 9.125 16.0026 9.125ZM21.6892 10.3149L21.6912 10.3168L21.4898 10.5151L21.6873 10.313L21.6892 10.3149ZM10.3155 21.6873L10.314 21.6858L10.5153 21.4875L10.3171 21.6889L10.3155 21.6873ZM10.3151 10.3157L10.3171 10.3138L10.5153 10.5151L10.3132 10.3176L10.3151 10.3157ZM12.7432 15.9997C12.7432 14.2018 14.2019 12.7432 15.9997 12.7432C17.7977 12.7432 19.2563 14.2018 19.2563 15.9997C19.2563 17.7977 17.7977 19.2563 15.9997 19.2563C14.2019 19.2563 12.7432 17.7977 12.7432 15.9997ZM18.5293 12.0177C18.5293 11.2182 19.1774 10.5703 19.9766 10.5703C20.7759 10.5703 21.424 11.2182 21.424 12.0177C21.424 12.817 20.776 13.465 19.9766 13.465C19.1773 13.465 18.5293 12.817 18.5293 12.0177Z" fill="url(#paint0_linear_241_1435)"/>
<defs>
<linearGradient id="paint0_linear_241_1435" x1="32" y1="-3.33739e-05" x2="-0.367119" y2="0.37571" gradientUnits="userSpaceOnUse">
<stop stop-color="#ECD3AB"/>
<stop offset="0.513383" stop-color="#A4866A"/>
<stop offset="1" stop-color="#FEFCE9"/>
</linearGradient>
</defs>
</svg>

<svg width="32" height="32" viewBox="0 0 32 32" fill="none" xmlns="http://www.w3.org/2000/svg">
<path fill-rule="evenodd" clip-rule="evenodd" d="M16 32c8.837 0 16-7.163 16-16S24.837 0 16 0 0 7.163 0 16s7.163 16 16 16zm.003-22.875c-1.792 0-2.021.008-2.73.039-.728.032-1.24.15-1.69.325a3.5 3.5 0 0 0-1.268.827c-.363.357-.644.79-.824 1.265-.174.45-.292.96-.324 1.687-.034.713-.042.942-.042 2.733 0 1.792.008 2.02.039 2.73.032.727.15 1.24.325 1.688.182.48.464.91.826 1.268.358.363.791.645 1.267.824.45.174.96.293 1.688.325.71.031.938.039 2.73.039s2.02-.008 2.73-.039c.728-.032 1.24-.15 1.69-.325a3.655 3.655 0 0 0 2.09-2.091c.175-.45.294-.96.326-1.689.031-.71.039-.938.039-2.73 0-1.79-.003-2.02-.034-2.73-.032-.727-.15-1.239-.325-1.688-.181-.48-.46-.91-.827-1.268a3.527 3.527 0 0 0-1.265-.824c-.451-.174-.96-.292-1.688-.324-.712-.034-.942-.042-2.733-.042zm5.686 1.19l.002.002-.201.198.197-.202.002.002zM10.316 21.687l-.002-.001.201-.198-.198.2h-.002zm0-11.371l.001-.002.198.201-.202-.197.002-.002zM12.742 16a3.257 3.257 0 1 1 6.515.001A3.257 3.257 0 0 1 12.743 16zm5.786-3.982a1.447 1.447 0 1 1 2.895 0 1.447 1.447 0 0 1-2.895 0z" fill="#333"></path>
            <path fill-rule="evenodd" clip-rule="evenodd" d="M16 32c8.837 0 16-7.163 16-16S24.837 0 16 0 0 7.163 0 16s7.163 16 16 16zm.003-22.875c-1.792 0-2.021.008-2.73.039-.728.032-1.24.15-1.69.325a3.5 3.5 0 0 0-1.268.827c-.363.357-.644.79-.824 1.265-.174.45-.292.96-.324 1.687-.034.713-.042.942-.042 2.733 0 1.792.008 2.02.039 2.73.032.727.15 1.24.325 1.688.182.48.464.91.826 1.268.358.363.791.645 1.267.824.45.174.96.293 1.688.325.71.031.938.039 2.73.039s2.02-.008 2.73-.039c.728-.032 1.24-.15 1.69-.325a3.655 3.655 0 0 0 2.09-2.091c.175-.45.294-.96.326-1.689.031-.71.039-.938.039-2.73 0-1.79-.003-2.02-.034-2.73-.032-.727-.15-1.239-.325-1.688-.181-.48-.46-.91-.827-1.268a3.527 3.527 0 0 0-1.265-.824c-.451-.174-.96-.292-1.688-.324-.712-.034-.942-.042-2.733-.042zm5.686 1.19l.002.002-.201.198.197-.202.002.002zM10.316 21.687l-.002-.001.201-.198-.198.2h-.002zm0-11.371l.001-.002.198.201-.202-.197.002-.002zM12.742 16a3.257 3.257 0 1 1 6.515.001A3.257 3.257 0 0 1 12.743 16zm5.786-3.982a1.447 1.447 0 1 1 2.895 0 1.447 1.447 0 0 1-2.895 0z" fill="url(#insdsf)"></path>
            <defs>
                <linearGradient id="insdsf" x1="32" x2="-.367" y2=".376" gradientUnits="userSpaceOnUse">
                    <stop stop-color="#ECD3AB"></stop>
                    <stop offset=".513" stop-color="#A4866A"></stop>
                    <stop offset="1" stop-color="#FEFCE9"></stop>
                </linearGradient>
            </defs>
</svg>
